packages/katcn/src/icons/svg/deal-solid.svg

<svg width="24" height="25" viewBox="0 0 24 25" fill="none" xmlns="http://www.w3.org/2000/svg">
<path d="M20.7 7.17607C20.6 7.07607 20.4 6.97607 20.3 6.97607C21.1 6.47607 21.6 5.67607 21.6 4.67607C21.6 3.17607 20.4 1.97607 18.9 1.97607C17.4 1.97607 16.2 3.17607 16.2 4.67607C16.2 5.67607 16.7 6.47607 17.5 6.97607C16.4 7.37607 15.7 8.37607 14.8 9.47607L13.3 11.4761L14.8 13.6761L16.9 12.0761V21.7761C16.9 22.8761 17.7 23.8761 18.8 23.9761C19.4 23.9761 20 23.7761 20.4 23.3761C20.8 22.9761 21 22.4761 21 21.8761V16.6761L22.3 15.1761C22.8 14.4761 23.1 13.6761 23.1 12.8761V10.8761C23 9.27607 22.2 7.77607 20.7 7.17607Z" fill="black"/>
<path d="M12 12.9761L9.3 9.47607C8.4 8.37607 7.7 7.37607 6.6 6.97607C7.4 6.47607 7.9 5.67607 7.9 4.67607C7.9 3.17607 6.6 1.97607 5.1 1.97607C3.7 1.97607 2.4 3.17607 2.4 4.67607C2.4 5.67607 2.9 6.47607 3.7 6.97607C3.6 6.97607 3.5 7.07607 3.4 7.07607C1.9 7.67607 1 9.27607 1 10.8761V12.8761C1 13.6761 1.3 14.5761 1.8 15.1761L3.1 16.6761V21.8761C3.1 22.4761 3.3 22.9761 3.7 23.3761C4.1 23.7761 4.6 23.9761 5.1 23.9761C6.2 23.9761 7.2 23.0761 7.2 21.8761V12.0761L11.3 15.1761C11.5 15.3761 12 15.3761 12.3 15.1761C12.8 14.9761 13 14.2761 12.6 13.7761L12 12.9761Z" fill="black"/>
</svg>

<svg xmlns="http://www.w3.org/2000/svg" fill="none" viewBox="0 0 24 25"><path fill="#000" d="M20.7 7.176c-.1-.1-.3-.2-.4-.2.8-.5 1.3-1.3 1.3-2.3 0-1.5-1.2-2.7-2.7-2.7s-2.7 1.2-2.7 2.7c0 1 .5 1.8 1.3 2.3-1.1.4-1.8 1.4-2.7 2.5l-1.5 2 1.5 2.2 2.1-1.6v9.7c0 1.1.8 2.1 1.9 2.2.6 0 1.2-.2 1.6-.6q.6-.6.6-1.5v-5.2l1.3-1.5c.5-.7.8-1.5.8-2.3v-2c-.1-1.6-.9-3.1-2.4-3.7m-8.7 5.8-2.7-3.5c-.9-1.1-1.6-2.1-2.7-2.5.8-.5 1.3-1.3 1.3-2.3 0-1.5-1.3-2.7-2.8-2.7-1.4 0-2.7 1.2-2.7 2.7 0 1 .5 1.8 1.3 2.3-.1 0-.2.1-.3.1-1.5.6-2.4 2.2-2.4 3.8v2c0 .8.3 1.7.8 2.3l1.3 1.5v5.2q0 .9.6 1.5c.4.4.9.6 1.4.6 1.1 0 2.1-.9 2.1-2.1v-9.8l4.1 3.1c.2.2.7.2 1 0 .5-.2.7-.9.3-1.4z"/></svg>
